X: 30460
T: Old Wheel Of Fortune, The
R: strathspey
M: 4/4
K: Dmajor
|:dB|AFdF EA,CE|FDdD cDBD|AFdF EA,CE|1 FAGE D2:|2 FAGE DA||
K: AMaj
df|eAcA eAdf|eAcA B^ABf|eAcA efec|decd BcAf|
eAcA ecdf|eAcA f^efg|afec Afec|decd BA||

